X:64
M:6/8
L:1/8
K:B_
d2e f2g|g2f f2e|d2e f2^f|g2B G2g|
f2e d2c|B2c d2B|(c>Bc) d3|B2G F2||

